svg/blobs-icons/no-decorations/clothes-hanger.svg

<svg xmlns="http://www.w3.org/2000/svg" xmlns:xlink="http://www.w3.org/1999/xlink" preserveAspectRatio="xMidYMid" width="217" height="127" viewBox="0 0 217 127"><defs><style>.cls-3{fill:#142a3b}.cls-4{fill:#ff3a2f}</style></defs><g id="group-95svg"><path d="M106.68 64.605C104.684 64.605 103.065 62.987 103.065 60.991V43.792S106.68 43.792 106.68 43.792c17.467.0 19.354-12.791 19.354-18.289.0-10.418-7.319-18.274-17.026-18.274-10.031.0-18.189 8.15-18.189 18.168C90.819 27.392 89.2 29.012 87.204 29.012c-1.996.0-3.615-1.62-3.615-3.615.0-14.004 11.404-25.398 25.419-25.398 13.828.0 24.255 10.965 24.255 25.504.0 14.312-8.893 23.949-22.969 25.343V60.991c0 1.996-1.618 3.614-3.61399999999999 3.614z" id="path-1" class="cls-3" fill-rule="evenodd"/><path d="M106.188 60.006S-.011 100.876-.011 100.876s7.68 25.632 7.68 25.632 202.949.0 202.949.0 6.245-25.632 6.245-25.632-110.675-40.87-110.675-40.87zm96.138 58.62s-186.051.0-186.051.0-3.931-11.166-3.931-11.166 92.371-38.094 92.371-38.094S205.601 107.46 205.601 107.46 202.326 118.626 202.326 118.626z" id="path-2" class="cls-4" fill-rule="evenodd"/></g></svg>

<svg xmlns="http://www.w3.org/2000/svg" xmlns:xlink="http://www.w3.org/1999/xlink" preserveAspectRatio="xMidYMid" width="217" height="127" viewBox="0 0 217 127">
  <defs>
    <style>

      .cls-3 {
        fill: #142a3b;
      }

      .cls-4 {
        fill: #ff3a2f;
      }
    </style>
  </defs>
  <g id="group-95svg">
    <path d="M106.680,64.605 C104.684,64.605 103.065,62.987 103.065,60.991 C103.065,60.991 103.065,43.792 103.065,43.792 C103.065,43.792 106.680,43.792 106.680,43.792 C124.147,43.792 126.034,31.001 126.034,25.503 C126.034,15.085 118.715,7.229 109.008,7.229 C98.977,7.229 90.819,15.379 90.819,25.397 C90.819,27.392 89.200,29.012 87.204,29.012 C85.208,29.012 83.589,27.392 83.589,25.397 C83.589,11.393 94.993,-0.001 109.008,-0.001 C122.836,-0.001 133.263,10.964 133.263,25.503 C133.263,39.815 124.370,49.452 110.294,50.846 C110.294,50.846 110.294,60.991 110.294,60.991 C110.294,62.987 108.676,64.605 106.680,64.605 Z" id="path-1" class="cls-3" fill-rule="evenodd"/>
    <path d="M106.188,60.006 C106.188,60.006 -0.011,100.876 -0.011,100.876 C-0.011,100.876 7.669,126.508 7.669,126.508 C7.669,126.508 210.618,126.508 210.618,126.508 C210.618,126.508 216.863,100.876 216.863,100.876 C216.863,100.876 106.188,60.006 106.188,60.006 ZM202.326,118.626 C202.326,118.626 16.275,118.626 16.275,118.626 C16.275,118.626 12.344,107.460 12.344,107.460 C12.344,107.460 104.715,69.366 104.715,69.366 C104.715,69.366 205.601,107.460 205.601,107.460 C205.601,107.460 202.326,118.626 202.326,118.626 Z" id="path-2" class="cls-4" fill-rule="evenodd"/>
  </g>
</svg>
